X: 28055
T: Mr And Mrs MacLean Of Snaigow
R: waltz
M: 3/4
K: Dmajor
|:E+slide+F|D4+slide+FG|A4{a}ed|+slide+B3{c}B AF|E3zEF|D2 +slide+F3 G|+slide+A4{a}gf|+slide+e2{g}edB|+slide+A3z(3{c}ABc|
cd A2 {B}A G|+slide+F2{A}F G A D|+slide+B3 {A}G F D|+slide+E3z {c}AF|D2 F3 A|+slide+B2 +slide+e2{g}e c|A6-|{B}A4:|
|:{a}fg|+slide+a3{c'}ag{a}g f|+slide+e4 zf|{a}f+slide+g+slide+B3 d|+slide+c4 {a}fg|+slide+a2 f2d2|G4 AB|+slide+A6-|{B}A4 {a}fg||
+slide+a3{c'}ag{a}g f|+slide+ e4z2 f/a/|+slide+g2 +slide+B3 d|cB{c}AGJFE|D2 F3 A|B2 e3 c|A6-|{B}A4:|

